X:1
T:Anchors Aweigh
T:Anchors Aweigh
T:Chas A Zimmermann
C:Chas A Zimmermann
%%score 1 2 3
L:1/8
M:2/2
K:F
V:1 treble nm="Flute" snm="Fl."
V:2 treble transpose=-2 nm="B♭ Clarinet" snm="B♭ Cl."
V:3 treble transpose=-2 nm="B♭ Clarinet" snm="B♭ Cl."
V:1
!ff! f2 z (f f'2) z (f' | d'2) c'2 bagf | e2 f2 ^f2 g2 | c2 z2{/d} (c=Bc^c) |: %4
!mf! d2 z (d"_cresc." g2) z (g |"_cresc." e2) z (e a2) z (a |!f! f2) !^!d'2 !^!c'4- | %7
 c'2 (ab) c'd'e'f' | f'2 e'4 d'2- | d'2 c'4 b2 | a2 gf egfd | c4{/d} (c=Bc^c) | %12
!mf! d2 z!<(! (d g2) z (g!<)! |!<(! e2) z (e a2) z (a!<)! |!f! f2) !^!d'2 !^!c'4- | %15
 c'2 (ab) c'd'e'f' | e'2 !^!g'4 !^!e'2 | !^!c'2 !^!e2 !^!f2 !^!^f2 | !^!g2 (=ba gfed |1 %19
 c2 z2{/d} (c)=Bc)^c :|2 c2 z2 !^!f'3 !^!f' |:!ff! .f'2 !>!e'4 d'2- | d'2 c'4 b2 | a3 f c4- | %24
 c4 !^!a3 a | .a2 e'4 d'2- | d'2 c'2 b2 a2 | b3 g d4- | d4 f'3 f' |!mp! .f'2 .f'2 .f'2 .f'2 | %30
!<(! .f'2 .f'2 !^!e'3 d'!<)! | d' z z2!f! !>!c'4- | c' z (^c'2 d'2) a2 | c' z z2 b4- | %34
 b2 (d'2 e'3) b | d' z z2 c'4- | c'4 f'3 f' |!mp! f'2!<(! f'2 f'2 f'2!<)! | %38
!<(! f'2 f'2 e'3 d'!<)! | d' z z2 c'4- | c' z!<(! (a2 ^g2 a2)!<)! | .b.c' .d'2 .g2 .b2 | %42
 .d2 .f2 .e.f .g2 | f8- |1 f2 z2!sfz! f'3 f' :|2 f2 z2 !^!g3 !^!g ||[K:C]!f! !^!c' z (e2 f2) ^f2 | %47
 g z (=f2 d2) _B2 | G z z2 z4 | g8 ||!p! z2 E2 E2 E2 | z2 G2 z2 E2 | z2 C2 C2 C2 | z2 C2 z2 C2 | %54
 z2 E2 E2 E2 | z2 F2 z2 F2 | z2 E2 z2 A2 | z2 E2 z2 E2 | z2 F2 z2 F2 | z2 C2 z2 C2 | z2 E2 z2 E2 | %61
 z2 G2 z2 F2 | z2 D2 z2 ^F2 | z2 ^F2 z2 F2 | z2 G2 z2 =F2 | z2 G2 z2 F2 | z2 E2 E2 E2 | %67
 z2 G2 z2 E2 | z2 C2 C2 C2 | z2 E2 z2 C2 | z2 E2 E2 E2 | z2 F2 z2 F2 | z2 E2 z2 E2 | z2 E2 z2 E2 | %74
 z2 C2 C2 C2 | z2 C2 z2 C2 | z2 E2 z2 E2 | z2 F2 z2 E2 | !>!C z z2 z2 z2 | !>!B z z2 z2 z2 | z8 | %81
 z2 z2 e'3 e' |!ff! !^!b4 !^!e2 z2 | z4 ABcd | e2 ee e2 !>!^g2 | !>!a2 z2 !>!d'3 !>!d' | %86
 !^!d'4 !^!d2 z2 | z4 GABc | .d2 .d.d .d2 !^!^f2 | !^!g2 z2 !^!g3 g | %90
"_cresc." !^!g2 !^!^g2 !^!a2 !^!f2 | !^!d2 !^!e2 !^!f2 !^!e2 |!<(! !^!d2 !^!c2 !^!B2 !^!A2!<)! | %93
 !^!G2 !^!G2 !^!G2 !^!G2 | !>!c8 | !>!e4 !>!g4 | !>!a6 e2 | a8 | c'8 | d'4 g4 | c'8- | c'8 | %102
 !>!a8 | !>!c'4 !>!a4 | !>!g4 !>!a4 | !>!b4 !>!c'4 | !>!^f4 !>!a4 | !>!d'4 !>!c'4 | !>!b4 !>!g4 | %109
 !>!f4 !>!d4 | !>!c8 | !>!e4 !>!g4 | !>!a6 e2 | !>!a8 | !>!c'8 | !>!d'4 !>!g4 | c'8- | c'8 | %118
 !>!a8 | !>!c'4 !>!a4 | !>!g4 !>!a4 | !>!b4 !>!c'4 | !^!e z (!^!g2 ^f2 g2) | !^!d z (g2 ^f2) g2 | %124
 !^!c2!<(! .e.f !^!g2 .a.b!<)! | !^!c'2 z2!ff! !^!c'2 z2 |] %126
V:2
[K:G]!ff! G2 z (G g2) z (g | e2) d2 z4 | F2 G2 ^G2 A2 | D2 z2 z4 |:!mf! z2 E2"_cresc." z2 ^C2 | %5
"_cresc." z2 =C2 z2 D2 |!f! z2 D2 z2 G2 | z2 G2 z2 G2 | z2 F2 z2 F2 | z2 F2 z2 F2 | z2 G2 z2 D2 | %11
 B,4 z2 z2 |!mf! z2 e2 z2 ^c2 | z2 =c2 z2 d2 |!f! z2 d2 z2 d2 | z2 d2 z2 d2 | d8- | %17
 d2 !^!F2 !^!G2 !^!^G2 | !^!A2 z2 ^c4 |1 F2 z2 z4 :|2 F2 z2 !^!g3 !^!g |:!ff! z2 f2 z2 f2 | %22
 z2 f2 z2 f2 | z2 G2 z2 G2 | z2 !^!g2 !^!^f2 !^!=f2 | z2 d2 z2 d2 | z2 d2 z2 d2 | z2 c2 z2 c2 | %28
 z2 c2 z2 c2 |!mp! .e2 .e2 .e2 .e2 |!<(! .e2 .e2 !^!d3 c!<)! | B z G2!f! !>!b4- | b z g2 z2 g2 | %33
 z2 f2 z2 f2 | z2 f2 z2 f2 | z2 d2 z2 d2 | z2 d2 z2 d2 |!mp! z2!<(! c2 z2 c2!<)! | %38
!<(! z2 c2 z2 c2!<)! | z2 d2 z2 d2 | z2!<(! g2 z2 g2!<)! | z2 e2 z2 e2 | z2 e2 z2 f2 | %43
 g2 e2 d2 B2 |1 G2 z2!sfz! d4 :|2 B2 z2 !^!A3 !^!A ||[K:D]!f! !^!d z (F2 G2 ^G2 | %47
 A) z (=G2 E2) =C2 | A, z z2 z4 | !^!A2 !^!G2 !^!F2 !^!E2 ||!p! (D8 | F4 A4 | (B6) F2) | B8 | d8 | %55
 e4 A4 | d8- | d8 | B8 | d4 B4 | A4 B4 | c4 d4 | ^G4 B4 | e4 d4 | c4 A4 | G4 E4 | D2 z2 A,2 z2 | %67
 D2 z2 D2 z2 | B,2 z2 B,2 z2 | D2 z2 B,2 z2 | !^!A,2 z2 A,2 z2 | C2 z2 A,2 z2 | D2 z2 !>!B4 | %73
 !>!A4 !>!F4 | G2 z2 D2 z2 | G2 z2 G2 z2 | F2 z2 D2 z2 | E2 z2 F2 z2 | !>!A, z z2 z4 | %79
 !>!A, z z2 z4 | A,2 B,2 A,2 F,2 | D2 z2 f3 f |!ff! !^!^a4 !^!F2 z2 | B,C D2 Bcde | %84
 f2 ff f2 !>!e2 | !>!d2 z2 !>!e3 !>!e | !^!b4 !^!e2 z2 | !>!A,!>!B, !>!C2 ABcd | %88
 .e2 .e.e .e2 !^!e2 | !^!c2 z2 !^!A3 A |"_cresc." !^!A2 !^!^A2 !^!B2 !^!G2 | %91
 !^!E2 !^!F2 !^!G2 !^!F2 |!<(! !^!E2 !^!D2 !^!C2 !^!B,2!<)! | !^!A,2 !^!A,2 !^!A,2 !^!A,2 | %94
!ff! !>!D8 | !>!F4 !>!A4 | !>!B6 F2 | B8 | d8 | e4 A4 | d8- | d8 | B8 | !>!d4 !>!B4 | !>!A4 !>!B4 | %105
 !>!c4 !>!d4 | !>!^G4 !>!B4 | !>!e4 !>!d4 | !>!c4 !>!A4 | !>!G4 !>!E4 | D2 F2 F2 F2 | D2 F2 D2 F2 | %112
 B,2 F2 F2 F2 | D2 F2 B,2 F2 | A,2 F2 F2 F2 | C2 G2 A,2 G2 | D2 F2 !>!B4 | !>!A4 !>!F4 | %118
 G,2 B,2 B,2 B,2 | G,2 B,2 G,2 B,2 | F,2 A,2 D2 A,2 | E,2 G,2 F,2 A,2 | !^!F, z z2 D4 | %123
 !^!c z z2 =G4 | !^!F2!<(! z2 !^!G2 z2!<)! | !^!F2 z2!ff! !^!f2 z2 |] %126
V:3
[K:G]!ff! G,2 z (G, G2) z (G | E2) D2 z4 | F,2 G,2 ^G,2 A,2 | D2 z2 z4 |: %4
!mf! A,2 ^C2"_cresc." G,2 C2 |"_cresc." F,2 A,2 D2 C2 |!f! G,2 B,2 D2 B,2 | G,2 D2 B,2 D2 | %8
 A,2 C2 D2 C2 | A,2 C2 D2 C2 | G,2 B,2 D2 B,2 | G,4 z4 |!mf! A2 ^c2 G2 A2 | F2 A2 D2 c2 | %14
!f! G2 B2 D2 B2 | G2 B2 E2 _B2 | A8- | A2 !^!F,2 !^!G,2 !^!^G,2 | !^!A,2 z2 A4 |1 D2 z2 z4 :|2 %20
 D2 z2 z4 |:!ff! A2 c2 D2 c2 | F2 c2 D2 c2 | G2 B2 D2 B2 | G2 !^!G2 !^!F2 !^!=F2 | E2 ^G2 B,2 G2 | %26
 E2 ^G2 E2 G2 | A,2 A2 E2 A2 | C2 A2 A,2 A2 |!mp! C2 G2 E2 G2 |!<(! C2 G2 E2 G2!<)! | %31
 D2 B2!f! G2 B2 | B2 d2 G2 B2 | F2 c2 D2 c2 | F2 c2 D2 c2 | G2 B2 D2 B2 | G2 B2 B,2 B2 | %37
!mp! C2!<(! G2 E2 G2!<)! |!<(! C2 G2 E2 G2!<)! | D2 B2 G2 B2 | B2!<(! d2 G2 B2!<)! | C2 A2 A,2 A2 | %42
 C2 A2 D2 c2 | G2 E2 D2 B,2 |1 G,2 z2!sfz! B4 :|2 G,2 z2 !^!A,3 !^!A, || %46
[K:D]!f! !^!D z (F,2 G,2) ^G,2 | A, z (=G2 E2) =C2 | A, z z2 z4 | !^!A,2 !^!G,2 !^!F,2 !^!E,2 || %50
!p! D2 A2 A,2 A2 | D2 D2 D2 D2 | B,2 F2 B,2 F2 | D2 B2 B,2 B2 | A,2 A2 A,2 A2 | C2 A2 A,2 C2 | %56
 D2 A,2 !>!B,4 | !>!A,4 !>!F,4 | G,2 D2 D2 D2 | G2 D2 G2 D2 | F2 D2 D2 D2 | E2 G2 F2 A2 | %62
 B,2 D2 E2 D2 | B,2 B2 E2 E2 | A,2 A2 A,2 C2 | E2 C2 A,2 B,2 | (D8 | F4 A4 | (B6) F2 | B8) | d8 | %71
 e4 A4 | d8- | d8 | B8 | d4 B4 | A4 B4 | c4 d4 | F z (A2 ^G2 A2) | E z (A2 ^G2 A2) | D8- | %81
 D2 z2 f3 f |!ff! !^!f4 !^!F,2 z2 | B,C D2 Bcde | f2 ff f2 !>!F2 | !>!B,2 z2 !>!e3 !>!e | %86
 !^!^g4 !^!E2 z2 | !>!A,!>!B, !>!C2 ABcd | .e2 .e.e .e2 !^!B2 | !^!A2 z2 !^!A3 A | %90
"_cresc." !^!A2 !^!^A2 !^!B2 !^!G2 | !^!E2 !^!F2 !^!G2 !^!F2 |!<(! !^!E2 !^!D2 !^!C2 !^!B,2!<)! | %93
 !^!A,2 !^!G,2 !^!F,2 !^!E,2 | D2 F2!ff!!ff! D2 F2 | D2 F2 D2 F2 | B,2 F2 D2 F2 | D2 F2 B,2 F2 | %98
 A,2 F2 D2 F2 | C2 G2 A,2 G2 | D2 F2 !>!B4 | !>!A4 !>!F4 | G,2 B,2 D2 B,2 | G,2 B,2 D2 B,2 | %104
 F,2 A,2 D2 F2 | E2 G2 F2 A2 | B,2 E2 E,2 E2 | B,2 E2 E,2 E2 | A,2 G2 A,2 G2 | E,2 G,2 A,2 G,2 | %110
 !>!D8 | !>!F4 !>!A4 | !>!B6 F2 | !>!B8 | !>!d8 | !>!e4 !>!A4 | d8- | d8 | !>!B8 | !>!d4 !>!B4 | %120
 !>!A4 !>!B4 | !>!c4 !>!d4 | !^!d z z2 A4 | !^!A z z2 A4 | !^!D2!<(! z2 !^!A,2 z2!<)! | %125
 !^!D2 z2!ff! !^!D2 z2 |] %126

